X:239
T:Providence
M:4/4
L:1/8
R:reel
K:D
|:EDEF DEFA|~d2 fd gdfd|ed(3Bcd AdBA|~B2AF GFED|
EDEF DEFA|~d2 fd gdfd|ed (3Bcd AdBA|1 ~B2AG FDD2:|2 ~B2AG FDDe|
|:fd~d2 fdad|fd~d2 ecAg|fd~d2 fdad|ceag fdde|
fgaf gfec|dBAF GFGB|~A2 GB ABde|(3fga eg fdde:|
